**kern	**kern	**dynam
*part1	*part1	*part1
*staff2	*staff1	*
*I"Piano	*	*
*clefF4	*clefG2	*
*k[]	*k[]	*
=1	=1	=1
8C'L 8c	8aL] 8cc] 8ff]	.
8CC' 8C	8g' 8cc 8ee	.
8C' 8c	8e' 8g 8cc	.
8CC'J 8C	8g#X'J 8cc 8ee	.
=	=	=
8C'L 8c	8f'L 8a	.
8CC' 8C	8f#X'J 8a 8dd	.
*	*^	*
8C' 8c	16ccLL	8dL	.
.	16b	.	.
8CC'J 8C	16a	8fnJ	.
.	16bJJ	.	.
*	*v	*v	*
=	=	=
*^	*	*
4c	(8cL	4e 4g 4cc	.
.	8CJ)	.	.
4B	(8BL	8.gL 8.cc 8.ee	.
.	8CJ)	.	.
.	.	16ccJk 16ee 16gg	.
=	=	=	=
4B-X	(8B-L	8cc'L 8ee 8gg	.
.	8CJ)	8f'J 8cc 8dd	.
4A	(8AL	[4f [4cc [4ff	.
.	8CJ)	.	.
=	=	=	=
4A-X	(8A-L	8fL] 8cc] 8ff]	.
.	8CJ)	8e' 8cc 8ee	.
4G	(8GL	8d#X' 8cc	.
.	8CJ)	8e'J 8b 8ee	.
=	=	=	=
4F#X	(8F#L	8e-X'L 8a	.
.	8CJ)	8d'J 8a-X 8dd	.
*	*	*^	*
4Fn	(8FL	16ccLL	8dL	.
.	.	16b	.	.
.	8GGJ)	16an	8fJ 8g	.
.	.	16bJJ	.	.
*	*	*v	*v	*
=	=	=	=
4C^ 4E 4G 4c	8rGG	8en 8g 8cc	.
.	8CC	8r	.
*	*	*clefF4	*
4BB	8BBL	8.GL 8.e	???
.	8CCJ	.	.
.	.	16cJk 16g	.
*v	*v	*	*
=	=	=
*-	*-	*-
!!!system-decoration: {(s1,s2)}
